dist/assets/images/apartment-order-1.svg

<?xml version="1.0" encoding="UTF-8"?>
<svg width="140px" height="140px" viewBox="0 0 140 140" version="1.1" xmlns="http://www.w3.org/2000/svg" xmlns:xlink="http://www.w3.org/1999/xlink">
    <!-- Generator: Sketch 41.2 (35397) - http://www.bohemiancoding.com/sketch -->
    <title>Page 1</title>
    <desc>Created with Sketch.</desc>
    <defs>
        <polygon id="path-1" points="139.889836 69.945071 139.889836 139.889836 0 139.889836 0 69.945071 0 0.000306010929 139.889836 0.000306010929 139.889836 69.945071"></polygon>
    </defs>
    <g id="_Modal" stroke="none" stroke-width="1" fill="none" fill-rule="evenodd">
        <g id="iPad-Pro-Landscape" transform="translate(-293.000000, -2137.000000)">
            <g id="Page-1" transform="translate(293.000000, 2137.000000)">
                <mask id="mask-2" fill="white">
                    <use xlink:href="#path-1"></use>
                </mask>
                <g id="Clip-2"></g>
                <path d="M103.994754,45.389377 C105.173661,46.5682842 105.173661,48.4793224 103.994754,49.6582295 L59.1526776,94.500306 C58.5628415,95.0901421 57.7901639,95.3854426 57.0190164,95.3854426 C56.2478689,95.3854426 55.4751913,95.0901421 54.8853552,94.500306 L35.8935519,75.5115628 C34.7146448,74.3334208 34.7146448,72.4216175 35.8935519,71.2427104 C37.071694,70.0645683 38.9834973,70.0645683 40.1624044,71.2427104 L57.0174863,88.0977923 L99.7259016,45.389377 C100.906339,44.2104699 102.815847,44.2104699 103.994754,45.389377 M69.944918,133.852546 C34.7054645,133.852546 6.03530055,105.182383 6.03530055,69.942929 C6.03530055,34.7034754 34.7054645,6.03484153 69.944918,6.03484153 C105.184372,6.03484153 133.854536,34.7050055 133.854536,69.945224 C133.854536,105.184678 105.184372,133.852546 69.944918,133.852546 M69.944918,0.000306010929 C31.3768306,0.000306010929 0,31.3763716 0,69.945224 C0,108.513311 31.3768306,139.890142 69.944918,139.890142 C108.513005,139.890142 139.889836,108.513311 139.889836,69.945224 C139.889836,31.3763716 108.513005,0.000306010929 69.944918,0.000306010929" id="Fill-1" fill="#0062CD" mask="url(#mask-2)"></path>
            </g>
        </g>
    </g>
</svg>

<svg width="140" height="140" viewBox="0 0 140 140" xmlns="http://www.w3.org/2000/svg" xmlns:xlink="http://www.w3.org/1999/xlink"><title>Page 1</title><defs><path id="a" d="M139.89 69.945v69.945H0V0h139.89v69.945z"/></defs><g fill="none" fill-rule="evenodd"><mask id="b" fill="#fff"><use xlink:href="#a"/></mask><path d="M103.995 45.39a3.018 3.018 0 0 1 0 4.268L59.153 94.5a3.01 3.01 0 0 1-2.134.885 3.01 3.01 0 0 1-2.134-.885L35.894 75.512a3.018 3.018 0 1 1 4.268-4.27l16.855 16.856 42.709-42.709a3.018 3.018 0 0 1 4.269 0m-34.05 88.464c-35.24 0-63.91-28.67-63.91-63.91 0-35.24 28.67-63.908 63.91-63.908 35.24 0 63.91 28.67 63.91 63.91 0 35.24-28.67 63.908-63.91 63.908M69.945 0C31.377 0 0 31.376 0 69.945c0 38.568 31.377 69.945 69.945 69.945s69.945-31.377 69.945-69.945C139.89 31.376 108.513 0 69.945 0" fill="#0062CD" mask="url(#b)"/></g></svg>
